X: 1
T: Hunt, The
M: 4/4
L: 1/8
R: hornpipe
K: Gmaj
|: G>A(3BAG A>GE>G | c>B(3cde d>cB>a | G>A(3BAG A>GE>D |E<A>A>G (3ABc B>A |
G>A(3BAG A>GE>G | c>B(3cde d>cB>A | G>A(3BAG A>GE>D | E<G>G>A G2(3DEF :|
|: G>AB>c d2d>e | =f2f>e f2e>d | e2e>d e>f(3gfe | d2d>e d2c>B |
c>Bc>d e>dc>B | A2A>B A2G>F | G2g>a g>ed>B | A2A>B A>GE>D |
G>A(3BAG A>GE>G | c>B(3cde d>cB>A | G>A(3BAG A>GE>D | E<G>G>A G2(3DEF :|
